public/svg/circleChart.svg

<svg xmlns="http://www.w3.org/2000/svg" width="56" height="56" viewBox="0 0 56 56" fill="none">
<path d="M23.3337 7.46646C19.6836 8.31262 16.3265 10.1199 13.6104 12.7009C10.8943 15.2819 8.91819 18.5426 7.88705 22.1447C6.85592 25.7469 6.80731 29.5593 7.74626 33.1865C8.68521 36.8138 10.5775 40.1238 13.2269 42.7732C15.8763 45.4226 19.1863 47.3149 22.8136 48.2539C26.4408 49.1928 30.2533 49.1442 33.8554 48.1131C37.4575 47.0819 40.7182 45.1058 43.2992 42.3897C45.8802 39.6737 47.6875 36.3165 48.5336 32.6665C48.5336 32.0476 48.2878 31.4541 47.8502 31.0165C47.4126 30.579 46.8192 30.3331 46.2003 30.3331H30.3337C29.096 30.3331 27.909 29.8415 27.0338 28.9663C26.1587 28.0911 25.667 26.9041 25.667 25.6665V9.33313C25.638 9.05669 25.5544 8.78875 25.4211 8.54486C25.2878 8.30096 25.1073 8.08596 24.8903 7.91232C24.6732 7.73868 24.4239 7.60986 24.1567 7.53333C23.8895 7.45679 23.6097 7.43406 23.3337 7.46646Z" stroke="#1B5BF7" stroke-width="3.5" stroke-linecap="round" stroke-linejoin="round"/>
<path d="M35 8.1665C37.9627 9.2097 40.6536 10.9042 42.8746 13.1252C45.0956 15.3462 46.7901 18.0372 47.8333 20.9998H37.3333C36.7145 20.9998 36.121 20.754 35.6834 20.3164C35.2458 19.8788 35 19.2853 35 18.6665V8.1665Z" stroke="#1B5BF7" stroke-width="3.5" stroke-linecap="round" stroke-linejoin="round"/>
</svg>

<svg xmlns="http://www.w3.org/2000/svg" width="56" height="56" fill="none" stroke="#1b5bf7" stroke-width="3.5" stroke-linejoin="round" xmlns:v="https://vecta.io/nano"><path d="M23.334 7.466a21 21 0 0 0-10.107 35.308 21 21 0 0 0 35.307-10.107c0-.619-.246-1.212-.683-1.65a2.33 2.33 0 0 0-1.65-.683H30.334c-1.238 0-2.425-.492-3.3-1.367s-1.367-2.062-1.367-3.3V9.333a2.1 2.1 0 0 0-2.334-1.867zm11.666.7A21 21 0 0 1 47.833 21h-10.5c-.619 0-1.212-.246-1.65-.683a2.33 2.33 0 0 1-.683-1.65v-10.5z"/></svg>
